X:1
T:Are the Signals All Right?
T:Are the Signals All Right?
T:William Evander Penn
T:Samuel Peach, 1887
T:Public Domain Courtesy of the Cyber Hymnal™
T:Public Domain Courtesy of the Cyber Hymnal™
C:William Evander Penn
Z:Public Domain
Z:Courtesy of the Cyber Hymnal™
%%score ( 1 2 ) ( 3 4 )
L:1/8
Q:1/4=78
M:2/4
K:D
V:1 treble 
V:2 treble 
V:3 bass 
V:4 bass 
V:1
 D/[DE]/ | [DF] [DF]2 [CE] | [DF] [FA]2 [DB]/[DA]/ | [DF] [DF]2 [CE] | D3 [FA]/[FA]/ | %5
w: 1.~Wel- come,|band of true|toil- ers, Who by|thou- sands are|found On the|
w: 2.~By the|red lights of|dan- ger, Have you|left the down|line? By the|
w: 3.~With a|love for Christ’s|ser- vice, And your|soul well sup-|plied, With in-|
w: 4.~And at|last when your|jour- neys Up and|down shall be|done, And life’s|
 [GB] [GB]2 [Gd] | [FA] [DF]2 D/D/ | [CE] [CE]2 [DF] | [CE]3 [DA]/[FA]/ | [Fd] [Fd]2 [Ge] | %10
w: hun- dreds of|rail- ways And the|sta- tions a-|round; There’s a|ques- tion con-|
w: green lights of|cau- tion Have you|know- ledge di-|vine? Can you|say when on|
w: spir- èd di-|rec- tions Ful- ly|test- ed and|tried; With the|points set for|
w: train shall in|tri- umph To the|ter- mi- nus|come; Will you|sing as you’re|
 [Fd] [FA]2 [FA]/[FA]/ | [GB] [GB]2 [Gd] | [FA]3 D/[DE]/ | [DF] [DF]2 [CE] | %14
w: cern- ing Hea- ven’s|call- ing so|bright: Are you|hap- py in|
w: du- ty, Ei- ther|day- time or|night, I am|hap- py in|
w: glo- ry, With the|me- tals all|tight, Are you|hap- py in|
w: near- ing Hea- ven’s|stores of de-|light, Praise the|Lord! Hal- le-|
 [DF] [FA]2 [DB]/[DA]/ | [DF] [DF]2 [CE] | D3 ||"^Refrain" D/[DE]/ | [DF] [DF]2 [DF] | %19
w: Je- sus, “Are the|sig- nals all|right?”|||
w: Je- sus, And the|“sig- nals are|right”?|With a|clear shin- ing|
w: Je- sus, And the|“sig- nals all|right”?|Last verse:||
w: lu- jah! All the|“sig- nals all|right.”|With a|clear shin- ing|
 [DF]3 [DF]/[EG]/ | [FA] [FA]2 [FA] | [FA]3 [FA]/[FA]/ | [GB] [GB]2 [Gd] | [FA] [DF]2 [Fd]/[Ad]/ | %24
w: |||||
w: light, Is your|lamp burn- ing|bright? Have you|oil in your|ves- sels? Are the|
w: |||||
w: light, Yes, my|lamp’s burn- ing|bright, I am|hap- py in|Je- sus, With the|
 [Gc] [GB]2 [Gc] | [Fd]3 |] %26
w: ||
w: sig- nals all|right?|
w: ||
w: sig- nals all|right.|
V:2
 D/ x/ | x4 | x4 | x4 | D3 x | x4 | x3 D/D/ | x4 | x4 | x4 | x4 | x4 | x3 D/ x/ | x4 | x4 | x4 | %16
 D3 || D/ x/ | x4 | x4 | x4 | x4 | x4 | x4 | x4 | x3 |] %26
V:3
 [D,F,]/[D,G,]/ | [D,A,] [D,A,]2 [A,,A,] | [D,A,] [D,D]2 [G,D]/[F,D]/ | A, A,2 [A,,G,] | %4
 [D,F,]3 [D,D]/[D,D]/ | [G,,D] [G,,D]2 [B,,D] | [D,D] [D,A,]2 [D,F,]/[D,F,]/ | %7
 [A,,A,] [A,,A,]2 [A,,A,] | [A,,A,]3 [D,F,]/[D,A,]/ | [D,A,] [D,A,]2 [D,A,] | %10
 [D,A,] [D,D]2 [D,D]/[D,D]/ | [G,,D] [G,,D]2 [B,,D] | [D,D]3 [D,F,]/[D,G,]/ | %13
 [D,A,] [D,A,]2 [A,,A,] | [D,A,] [D,D]2 [G,D]/[F,D]/ | A, A,2 [A,,G,] | [D,F,]3 || [D,F,]/[D,G,]/ | %18
 [D,A,] [D,A,]2 [D,A,] | [D,A,]3 [D,A,]/[D,A,]/ | [D,D] [D,D]2 [D,D] | [D,D]3 [D,D]/[D,D]/ | %22
 [G,,D] [G,,D]2 [B,,D] | [D,D] [D,A,]2 [D,A,]/[F,A,]/ | A, A,2 [A,,A,] | [D,A,]3 |] %26
V:4
 x | x4 | x4 | A, A,2 x | x4 | x4 | x4 | x4 | x4 | x4 | x4 | x4 | x4 | x4 | x4 | A, A,2 x | x3 || %17
 x | x4 | x4 | x4 | x4 | x4 | x4 | A, A,2 x | x3 |] %26

